X:1
T:Huerta, 66.46.66.4
T:Huerta, 66.46.66.4
T:Robert Harkness, 1920
T:Public Domain Courtesy of the Cyber Hymnal™
C:Robert Harkness, 1920
Z:Public Domain
Z:Courtesy of the Cyber Hymnal™
%%score ( 1 2 ) 3
L:1/8
Q:1/4=110
M:4/4
K:Eb
V:1 treble 
V:2 treble 
V:3 bass 
V:1
 [EB]4 [EA]2 [EG]2 | [EG]3 [EF] [DF]4 | [FA]4 [EG]2 [DF]2 | E3 [DF] [EG]4 | [DF]4 [DB]2 [Ec]2 | %5
 [DB]6 z2 | [FB]4 [Fc]2 [FB]2 | [EB]3 [EG] [EB]4 | [Ee]4 [Bd]2 [Ac]2 | [Ac]3 [AB] [GB]4 | %10
 [EB]4 [EA]2 [EG]2 | [EF]3 [=EG] A4 | [DA]4 [DG]2 [B,F]2 | [B,E]6 z2 |] %14
V:2
 x8 | x8 | x8 | E3 x5 | x8 | x8 | x8 | x8 | x8 | x8 | x8 | x4 F2 _E2 | x8 | x8 |] %14
V:3
 [E,G,]4 [E,C]2 [E,B,]2 | [B,,B,]3 [C,=A,] [B,,B,]4 | D,4 [E,B,]2 [A,B,]2 | %3
 [G,B,]3 [F,B,] [E,B,]4 | [F,B,]4 [F,B,]2 [F,=A,]2 | [B,,B,]6 z2 | [A,D]4 [A,D]2 [A,D]2 | %7
 [G,B,]3 [E,B,] [G,B,]4 | [A,C]4 [A,E]2 [A,E]2 | [E,E]3 [F,D] [E,E]4 | [E,G,]4 [E,C]2 [E,B,]2 | %11
 [A,C]3 [G,C] [F,C]4 | [B,,C]4 [B,,B,]2 [B,,A,]2 | [E,G,]6 z2 |] %14

